TV/Source/EroX HD.svg

<svg height="2.847622mm" viewBox="0 0 2.8377445 2.8476222" width="2.837745mm" xmlns="http://www.w3.org/2000/svg" xmlns:xlink="http://www.w3.org/1999/xlink"><clipPath id="a"><path d="m80.539 46.298h18.106v8.601h-18.106z"/></clipPath><g clip-path="url(#a)" transform="matrix(.35277777 0 0 -.35277777 -30.18737 19.27377)"><g transform="translate(92.6425 53.2033)"><path d="m0 0c .092.077.173.132.215.134.252.013.126-.377.471-.36.201.011.282.168.286.355v1.085c-.004.072-.027.125-.062.162-.04.034-.093.055-.166.055l-1.138-.001c-.189.001-.341-.092-.342-.293-.003-.346.381-.203.379-.455 0-.041-.048-.122-.118-.213-.697.582-1.595.933-2.575.933-2.221 0-4.022-1.801-4.022-4.022s1.801-4.021 4.022-4.021 4.022 1.8 4.022 4.021c0 1.001-.367 1.916-.972 2.62" fill="#d40046"/></g><g transform="translate(87.8398 50.2496)"><path d="m0 0v-.291h-1.121v1.566h1.108v-.291h-.797v-.333h.629v-.273h-.629v-.378z" fill="#fff"/></g><g transform="translate(88.4885 50.7709)"><path d="m0 0h .277c.173 0 .253.112.253.23 0 .124-.083.233-.253.233h-.277zm.566-.812-.311.535h-.018-.237v-.535h-.311v1.566h.548c.385 0 .615-.208.615-.524 0-.214-.105-.371-.295-.449l.358-.593z" fill="#fff"/></g><g transform="translate(90.3164 50.2339)"><path d="m0 0c .289 0 .49.208.49.508 0 .302-.201.508-.49.508-.286 0-.488-.206-.488-.508 0-.3.202-.508.488-.508m0 1.322c.45 0 .814-.342.814-.814 0-.472-.364-.815-.814-.815s-.812.343-.812.815.362.814.812.814" fill="#fff"/></g><g transform="translate(91.8891 50.5002)"><path d="m0 0c-.002 0-.087-.145-.114-.186l-.251-.355h-.371l.548.803-.517.763h.374l.242-.36c.022-.036.087-.153.089-.153h.002c.003 0 .065.117.088.153l.241.36h.376l-.519-.763.548-.803h-.371l-.251.355c-.027.041-.109.186-.112.186z" fill="#fff"/></g><g transform="translate(89.4926 48.562)"><path d="m0 0h-.287v.336h-.245v-.336h-.287v.945h.287v-.335h.245v.335h.287z" fill="#fff"/></g><g transform="translate(89.8929 48.8354)"><path d="m0 0h .131c.092 0 .191.061.191.195 0 .133-.096.203-.191.203h-.131zm.131-.273h-.418v.944h.418c.278 0 .487-.204.487-.476 0-.271-.205-.468-.487-.468" fill="#fff"/></g></g></svg>

<?xml version="1.0" encoding="UTF-8" standalone="no"?>
<!-- Created with Inkscape (http://www.inkscape.org/) -->

<svg
   xmlns:dc="http://purl.org/dc/elements/1.1/"
   xmlns:cc="http://creativecommons.org/ns#"
   xmlns:rdf="http://www.w3.org/1999/02/22-rdf-syntax-ns#"
   xmlns:svg="http://www.w3.org/2000/svg"
   xmlns="http://www.w3.org/2000/svg"
   xmlns:sodipodi="http://sodipodi.sourceforge.net/DTD/sodipodi-0.dtd"
   xmlns:inkscape="http://www.inkscape.org/namespaces/inkscape"
   width="2.8377445mm"
   height="2.8476222mm"
   viewBox="0 0 2.8377445 2.8476222"
   version="1.1"
   id="svg60673"
   inkscape:version="0.92.0 r15299"
   sodipodi:docname="EroX HD.svg">
  <defs
     id="defs60667">
    <clipPath
       clipPathUnits="userSpaceOnUse"
       id="clipPath31910">
      <path
         d="m 80.539,62.456 h 18.106 v 8.6 H 80.539 Z"
         id="path31908"
         inkscape:connector-curvature="0" />
    </clipPath>
    <clipPath
       clipPathUnits="userSpaceOnUse"
       id="clipPath49018">
      <path
         d="m 80.539,46.298 h 18.106 v 8.601 H 80.539 Z"
         id="path49016"
         inkscape:connector-curvature="0" />
    </clipPath>
  </defs>
  <sodipodi:namedview
     id="base"
     pagecolor="#ffffff"
     bordercolor="#666666"
     borderopacity="1.0"
     inkscape:pageopacity="0.0"
     inkscape:pageshadow="2"
     inkscape:zoom="31.678384"
     inkscape:cx="5.4253961"
     inkscape:cy="8.3869472"
     inkscape:document-units="mm"
     inkscape:current-layer="layer1"
     showgrid="false"
     fit-margin-top="0"
     fit-margin-left="0"
     fit-margin-right="0"
     fit-margin-bottom="0"
     inkscape:window-width="1920"
     inkscape:window-height="1017"
     inkscape:window-x="-8"
     inkscape:window-y="-8"
     inkscape:window-maximized="1" />
  <metadata
     id="metadata60670">
    <rdf:RDF>
      <cc:Work
         rdf:about="">
        <dc:format>image/svg+xml</dc:format>
        <dc:type
           rdf:resource="http://purl.org/dc/dcmitype/StillImage" />
        <dc:title></dc:title>
      </cc:Work>
    </rdf:RDF>
  </metadata>
  <g
     inkscape:label="Layer 1"
     inkscape:groupmode="layer"
     id="layer1"
     transform="translate(-71.090835,-134.21748)">
    <g
       transform="matrix(0.35277777,0,0,-0.35277777,40.903465,153.49125)"
       id="g49012">
      <g
         id="g49014"
         clip-path="url(#clipPath49018)">
        <g
           id="g49020"
           transform="translate(92.6425,53.2033)">
          <path
             d="m 0,0 c 0.092,0.077 0.173,0.132 0.215,0.134 0.252,0.013 0.126,-0.377 0.471,-0.36 0.201,0.011 0.282,0.168 0.286,0.355 V 1.214 C 0.968,1.286 0.945,1.339 0.91,1.376 0.87,1.41 0.817,1.431 0.744,1.431 L -0.394,1.43 C -0.583,1.431 -0.735,1.338 -0.736,1.137 -0.739,0.791 -0.355,0.934 -0.357,0.682 -0.357,0.641 -0.405,0.56 -0.475,0.469 -1.172,1.051 -2.07,1.402 -3.05,1.402 c -2.221,0 -4.022,-1.801 -4.022,-4.022 0,-2.221 1.801,-4.021 4.022,-4.021 2.221,0 4.022,1.8 4.022,4.021 C 0.972,-1.619 0.605,-0.704 0,0"
             style="fill:#d40046;fill-opacity:1;fill-rule:nonzero;stroke:none"
             id="path49022"
             inkscape:connector-curvature="0" />
        </g>
        <g
           id="g49024"
           transform="translate(87.8398,50.2496)">
          <path
             d="m 0,0 v -0.291 h -1.121 v 1.566 h 1.108 V 0.984 H -0.81 V 0.651 h 0.629 V 0.378 H -0.81 V 0 Z"
             style="fill:#ffffff;fill-opacity:1;fill-rule:nonzero;stroke:none"
             id="path49026"
             inkscape:connector-curvature="0" />
        </g>
        <g
           id="g49028"
           transform="translate(88.4885,50.7709)">
          <path
             d="M 0,0 H 0.277 C 0.45,0 0.53,0.112 0.53,0.23 0.53,0.354 0.447,0.463 0.277,0.463 H 0 Z M 0.566,-0.812 0.255,-0.277 H 0.237 0 v -0.535 h -0.311 v 1.566 h 0.548 c 0.385,0 0.615,-0.208 0.615,-0.524 0,-0.214 -0.105,-0.371 -0.295,-0.449 l 0.358,-0.593 z"
             style="fill:#ffffff;fill-opacity:1;fill-rule:nonzero;stroke:none"
             id="path49030"
             inkscape:connector-curvature="0" />
        </g>
        <g
           id="g49032"
           transform="translate(90.3164,50.2339)">
          <path
             d="M 0,0 C 0.289,0 0.49,0.208 0.49,0.508 0.49,0.81 0.289,1.016 0,1.016 -0.286,1.016 -0.488,0.81 -0.488,0.508 -0.488,0.208 -0.286,0 0,0 M 0,1.322 C 0.45,1.322 0.814,0.98 0.814,0.508 0.814,0.036 0.45,-0.307 0,-0.307 c -0.45,0 -0.812,0.343 -0.812,0.815 0,0.472 0.362,0.814 0.812,0.814"
             style="fill:#ffffff;fill-opacity:1;fill-rule:nonzero;stroke:none"
             id="path49034"
             inkscape:connector-curvature="0" />
        </g>
        <g
           id="g49036"
           transform="translate(91.8891,50.5002)">
          <path
             d="m 0,0 c -0.002,0 -0.087,-0.145 -0.114,-0.186 l -0.251,-0.355 h -0.371 l 0.548,0.803 -0.517,0.763 h 0.374 l 0.242,-0.36 C -0.067,0.629 -0.002,0.512 0,0.512 h 0.002 c 0.003,0 0.065,0.117 0.088,0.153 l 0.241,0.36 H 0.707 L 0.188,0.262 0.736,-0.541 H 0.365 L 0.114,-0.186 C 0.087,-0.145 0.005,0 0.002,0 Z"
             style="fill:#ffffff;fill-opacity:1;fill-rule:nonzero;stroke:none"
             id="path49038"
             inkscape:connector-curvature="0" />
        </g>
        <g
           id="g49040"
           transform="translate(89.4926,48.562)">
          <path
             d="M 0,0 H -0.287 V 0.336 H -0.532 V 0 h -0.287 v 0.945 h 0.287 V 0.61 h 0.245 V 0.945 H 0 Z"
             style="fill:#ffffff;fill-opacity:1;fill-rule:nonzero;stroke:none"
             id="path49042"
             inkscape:connector-curvature="0" />
        </g>
        <g
           id="g49044"
           transform="translate(89.8929,48.8354)">
          <path
             d="m 0,0 h 0.131 c 0.092,0 0.191,0.061 0.191,0.195 0,0.133 -0.096,0.203 -0.191,0.203 H 0 Z m 0.131,-0.273 h -0.418 v 0.944 h 0.418 c 0.278,0 0.487,-0.204 0.487,-0.476 0,-0.271 -0.205,-0.468 -0.487,-0.468"
             style="fill:#ffffff;fill-opacity:1;fill-rule:nonzero;stroke:none"
             id="path49046"
             inkscape:connector-curvature="0" />
        </g>
      </g>
    </g>
  </g>
</svg>
